assets/src/images/icons/ic_control_neon.svg

<svg width="104" height="104" viewBox="0 0 104 104" fill="none" xmlns="http://www.w3.org/2000/svg">
<g filter="url(#filter0_d)">
<path fill-rule="evenodd" clip-rule="evenodd" d="M71.0667 41.3667L71.9467 42.0267C73.2667 42.98 74 44.52 74 46.1333V74H72.5333V46.1333C72.5333 44.96 72.02 43.86 71.0667 43.2V51.4133C71.0667 52 70.8467 52.5133 70.4067 52.9533C69.6 53.8333 68.2067 53.8333 67.3267 52.9533L64.54 50.1667C64.0267 49.6533 63.1467 49.6533 62.6333 50.1667C62.12 50.68 62.12 51.56 62.6333 52.0733L64.54 53.98C64.98 54.3467 65.2 54.9333 65.2 55.52V59.3333C65.2 60.5067 65.7133 61.6067 66.6667 62.2667L67.18 62.7067C67.7667 63.1467 68.06 63.8067 68.06 64.4667V74H66.5933V64.4667C66.5933 64.2467 66.52 64.0267 66.3 63.88L65.7133 63.44C65.2733 63.1467 64.9067 62.7067 64.6133 62.2667H39.3133C39.02 62.7067 38.6533 63.1467 38.2133 63.44L37.6267 63.88C37.4067 64.0267 37.3333 64.2467 37.3333 64.4667V74H35.8667V64.4667C35.8667 63.8067 36.16 63.1467 36.7467 62.7067L37.3333 62.2667C38.2867 61.6067 38.8 60.5067 38.8 59.3333V55.52C38.8 54.9333 39.02 54.42 39.46 53.98L41.3667 52.0733C41.88 51.56 41.88 50.68 41.3667 50.1667C40.8533 49.6533 39.9733 49.6533 39.46 50.1667L36.6733 52.9533C36.3067 53.3933 35.72 53.6133 35.1333 53.6133C33.8867 53.6133 32.9333 52.66 32.9333 51.4133V43.2C31.98 43.86 31.4667 44.96 31.4667 46.1333V74H30V46.1333C30 44.52 30.7333 42.98 32.0533 42.0267L32.9333 41.3667V32.2C32.9333 30.9533 33.8867 30 35.1333 30H68.8667C70.1133 30 71.0667 30.9533 71.0667 32.2V41.3667ZM40.2667 59.3333C40.2667 59.8467 40.1933 60.36 40.0467 60.8H63.9533C63.8067 60.36 63.7333 59.8467 63.7333 59.3333H40.2667ZM60.8 51.12C60.8 49.58 62.0467 48.3333 63.5867 48.3333C64.32 48.3333 65.0533 48.6267 65.5667 49.14L66.6667 50.24V34.4H37.3333V50.24L38.4333 49.14C39.5333 48.04 41.2933 48.04 42.3933 49.14C43.4933 50.24 43.4933 52 42.3933 53.1L40.4867 55.0067C40.34 55.1533 40.2667 55.3 40.2667 55.52V57.8667H63.7333V55.52C63.7333 55.3 63.66 55.1533 63.5133 55.0067L61.6067 53.1C61.0933 52.5867 60.8 51.8533 60.8 51.12ZM68.8667 52.1467C69.3067 52.1467 69.6 51.8533 69.6 51.4133V32.2C69.6 31.76 69.3067 31.4667 68.8667 31.4667H35.1333C34.6933 31.4667 34.4 31.76 34.4 32.2V51.4133C34.4 51.56 34.4733 51.78 34.62 51.9267C34.9133 52.22 35.3533 52.22 35.6467 51.9267L35.8667 51.7067V32.9333H68.1333V51.7067L68.3533 51.9267C68.5 52.0733 68.6467 52.1467 68.8667 52.1467ZM48.3333 40.9999C48.3333 38.9466 46.7199 37.3333 44.6666 37.3333C43.3466 37.3333 42.1733 38.0666 41.5133 39.1666C40.4866 40.9266 41.0733 43.1266 42.8333 44.1533L42.0999 45.3999C41.2933 44.8866 40.6333 44.2999 40.1933 43.4933C38.7999 40.9999 39.6066 37.8466 42.0999 36.4533C44.5933 35.0599 47.7466 35.8666 49.1399 38.3599C50.5333 40.8533 49.6533 44.0066 47.2333 45.3999L46.4999 44.1533C47.5999 43.4933 48.3333 42.3199 48.3333 40.9999ZM57.8665 35.8667H59.3332V41.0001H57.8665V35.8667ZM49.0668 51.9999H48.3335C47.0868 51.9999 46.1335 52.9533 46.1335 54.1999C46.1335 55.4466 47.0868 56.3999 48.3335 56.3999C49.5801 56.3999 50.5335 55.4466 50.5335 54.1999V49.7999H54.9335V51.9999H54.2001C52.9535 51.9999 52.0001 52.9533 52.0001 54.1999C52.0001 55.4466 52.9535 56.3999 54.2001 56.3999C55.4468 56.3999 56.4001 55.4466 56.4001 54.1999V48.3333H49.0668V51.9999ZM49.0668 54.1999C49.0668 54.6399 48.7735 54.9333 48.3335 54.9333C47.8935 54.9333 47.6001 54.6399 47.6001 54.1999C47.6001 53.7599 47.8935 53.4666 48.3335 53.4666H49.0668V54.1999ZM54.9335 54.1999C54.9335 54.6399 54.6401 54.9333 54.2001 54.9333C53.7601 54.9333 53.4668 54.6399 53.4668 54.1999C53.4668 53.7599 53.7601 53.4666 54.2001 53.4666H54.9335V54.1999ZM60.4335 38.5067L61.1668 37.26C61.9735 37.7733 62.5602 38.36 63.0735 39.1667C64.4668 41.66 63.6602 44.8133 61.1668 46.2067C58.6735 47.6 55.5202 46.7933 54.1268 44.3C52.7335 41.8067 53.6135 38.6533 56.0335 37.26L56.7668 38.5067C56.2535 38.8 55.7402 39.24 55.4468 39.8267C54.4202 41.5867 55.0068 43.7867 56.7668 44.8133C58.5268 45.84 60.7268 45.2533 61.7535 43.4933C62.7802 41.7333 62.1935 39.5333 60.4335 38.5067ZM43.9335 41.7333H45.4001V46.8666H43.9335V41.7333ZM59.8468 70.8467L58.8201 69.7467C55.0068 73.4134 48.9935 73.4134 45.1801 69.7467L44.1535 70.8467C48.5535 75.0267 55.4468 75.0267 59.8468 70.8467ZM57.4268 68.2067C54.2735 71.1401 49.3601 71.0667 46.3535 67.9134L47.4535 66.8867L47.6735 67.1067C50.2401 69.5267 54.2735 69.4534 56.6935 66.8867L57.7201 67.9134L57.4268 68.2067ZM55.5201 64.9066L54.4201 63.9533C53.4668 65.2733 51.6335 65.5666 50.3135 64.6133C50.0935 64.4666 49.8735 64.2466 49.6535 63.9533L48.5535 64.9066C50.0201 66.8133 52.8068 67.1799 54.7135 65.7133C55.0068 65.4933 55.2268 65.2733 55.5201 64.9066Z" fill="#0EF5FF"/>
</g>
<defs>
<filter id="filter0_d" x="0" y="0" width="104" height="104" filterUnits="userSpaceOnUse" color-interpolation-filters="sRGB">
<feFlood flood-opacity="0" result="BackgroundImageFix"/>
<feColorMatrix in="SourceAlpha" type="matrix" values="0 0 0 0 0 0 0 0 0 0 0 0 0 0 0 0 0 0 127 0"/>
<feOffset/>
<feGaussianBlur stdDeviation="15"/>
<feColorMatrix type="matrix" values="0 0 0 0 0.054902 0 0 0 0 0.960784 0 0 0 0 1 0 0 0 0.8 0"/>
<feBlend mode="normal" in2="BackgroundImageFix" result="effect1_dropShadow"/>
<feBlend mode="normal" in="SourceGraphic" in2="effect1_dropShadow" result="shape"/>
</filter>
</defs>
</svg>

<svg width="104" height="104" viewBox="0 0 104 104" fill="none" xmlns="http://www.w3.org/2000/svg"><g filter="url(#filter0_d)"><path fill-rule="evenodd" clip-rule="evenodd" d="M71.067 41.367l.88.66C73.267 42.98 74 44.52 74 46.133V74h-1.467V46.133c0-1.173-.513-2.273-1.466-2.933v8.213c0 .587-.22 1.1-.66 1.54-.807.88-2.2.88-3.08 0l-2.787-2.786a1.373 1.373 0 00-1.907 0 1.373 1.373 0 000 1.906l1.907 1.907c.44.367.66.953.66 1.54v3.813c0 1.174.513 2.274 1.467 2.934l.513.44c.587.44.88 1.1.88 1.76V74h-1.467v-9.533c0-.22-.073-.44-.293-.587l-.587-.44c-.44-.293-.806-.733-1.1-1.173h-25.3c-.293.44-.66.88-1.1 1.173l-.586.44c-.22.147-.294.367-.294.587V74h-1.466v-9.533c0-.66.293-1.32.88-1.76l.586-.44c.954-.66 1.467-1.76 1.467-2.934V55.52c0-.587.22-1.1.66-1.54l1.907-1.907a1.373 1.373 0 000-1.906 1.373 1.373 0 00-1.907 0l-2.787 2.786c-.366.44-.953.66-1.54.66-1.246 0-2.2-.953-2.2-2.2V43.2c-.953.66-1.466 1.76-1.466 2.933V74H30V46.133c0-1.613.733-3.153 2.053-4.106l.88-.66V32.2c0-1.247.954-2.2 2.2-2.2h33.734c1.246 0 2.2.953 2.2 2.2v9.167zm-30.8 17.966a4.73 4.73 0 01-.22 1.467h23.906a4.73 4.73 0 01-.22-1.467H40.267zM60.8 51.12a2.785 2.785 0 012.787-2.787c.733 0 1.466.294 1.98.807l1.1 1.1V34.4H37.333v15.84l1.1-1.1c1.1-1.1 2.86-1.1 3.96 0s1.1 2.86 0 3.96l-1.906 1.907a.665.665 0 00-.22.513v2.347h23.466V55.52a.665.665 0 00-.22-.513L61.607 53.1a2.833 2.833 0 01-.807-1.98zm8.067 1.027c.44 0 .733-.294.733-.734V32.2c0-.44-.293-.733-.733-.733H35.133c-.44 0-.733.293-.733.733v19.213c0 .147.073.367.22.514a.709.709 0 001.027 0l.22-.22V32.933h32.266v18.774l.22.22a.67.67 0 00.514.22zM48.333 41a3.631 3.631 0 00-3.666-3.667c-1.32 0-2.494.734-3.154 1.834a3.618 3.618 0 001.32 4.986L42.1 45.4c-.807-.513-1.467-1.1-1.907-1.907-1.393-2.493-.586-5.646 1.907-7.04 2.493-1.393 5.647-.586 7.04 1.907 1.393 2.493.513 5.647-1.907 7.04l-.733-1.247c1.1-.66 1.833-1.833 1.833-3.153zm9.534-5.133h1.466V41h-1.466v-5.133zM49.067 52h-.733c-1.247 0-2.2.953-2.2 2.2 0 1.247.953 2.2 2.2 2.2 1.246 0 2.2-.953 2.2-2.2v-4.4h4.4V52H54.2c-1.247 0-2.2.953-2.2 2.2 0 1.247.953 2.2 2.2 2.2 1.247 0 2.2-.953 2.2-2.2v-5.867h-7.333V52zm0 2.2c0 .44-.294.733-.733.733-.44 0-.734-.293-.734-.733s.294-.733.733-.733h.734v.733zm5.867 0c0 .44-.294.733-.734.733s-.733-.293-.733-.733.293-.733.733-.733h.733v.733zm5.5-15.693l.733-1.247a5.919 5.919 0 011.907 1.907c1.393 2.493.586 5.646-1.907 7.04-2.494 1.393-5.647.586-7.04-1.907-1.394-2.493-.514-5.647 1.906-7.04l.734 1.247c-.514.293-1.027.733-1.32 1.32a3.618 3.618 0 001.32 4.986 3.618 3.618 0 004.986-1.32 3.618 3.618 0 00-1.32-4.986zm-16.5 3.226H45.4v5.134h-1.466v-5.134zm15.913 29.114l-1.027-1.1a9.832 9.832 0 01-13.64 0l-1.026 1.1a11.387 11.387 0 0015.693 0zm-2.42-2.64c-3.154 2.933-8.067 2.86-11.074-.294l1.1-1.026.22.22c2.567 2.42 6.6 2.346 9.02-.22l1.027 1.026-.293.294zm-1.907-3.3l-1.1-.954a2.936 2.936 0 01-4.107.66c-.22-.146-.44-.366-.66-.66l-1.1.954c1.467 1.906 4.254 2.273 6.16.806.294-.22.514-.44.807-.806z" fill="#0EF5FF"/></g><defs><filter id="filter0_d" x="0" y="0" width="104" height="104" filterUnits="userSpaceOnUse" color-interpolation-filters="sRGB"><feFlood flood-opacity="0" result="BackgroundImageFix"/><feColorMatrix in="SourceAlpha" values="0 0 0 0 0 0 0 0 0 0 0 0 0 0 0 0 0 0 127 0"/><feOffset/><feGaussianBlur stdDeviation="15"/><feColorMatrix values="0 0 0 0 0.054902 0 0 0 0 0.960784 0 0 0 0 1 0 0 0 0.8 0"/><feBlend in2="BackgroundImageFix" result="effect1_dropShadow"/><feBlend in="SourceGraphic" in2="effect1_dropShadow" result="shape"/></filter></defs></svg>
